public/images/badge-oh-shit.svg

<svg xmlns="http://www.w3.org/2000/svg" width="162.582" height="50" viewBox="0 0 162.582 50"><font horiz-adv-x="1000"><font-face font-family="DINNextLTPro-Bold" underline-position="-100" underline-thickness="50"/><glyph unicode="H" horiz-adv-x="658" d="M65 10c0-6 4-10 10-10h127c6 0 10 4 10 10v262c0 4 2 6 6 6h222c4 0 6-2 6-6V10c0-6 4-10 10-10h127c6 0 10 4 10 10v660c0 6-4 10-10 10H456c-6 0-10-4-10-10V415c0-4-2-6-6-6H218c-4 0-6 2-6 6v255c0 6-4 10-10 10H75c-6 0-10-4-10-10z"/><glyph unicode="O" horiz-adv-x="628" d="M314-11c119 0 213 55 248 165 15 47 19 85 19 186s-4 139-19 186c-35 110-129 165-248 165S101 636 66 526c-15-47-19-85-19-186s4-139 19-186C101 44 195-11 314-11m0 130c-56 0-92 28-107 75-8 24-11 57-11 146s3 122 11 146c15 47 51 75 107 75s92-28 107-75c8-24 11-57 11-146s-3-122-11-146c-15-47-51-75-107-75z"/></font><font horiz-adv-x="1000"><font-face font-family="GothamHTF-Black" underline-position="-133" underline-thickness="20"/><glyph unicode="H" horiz-adv-x="761" d="M62 0h194v266h249V0h194v700H505V438H256v262H62z"/><glyph unicode="I" horiz-adv-x="327" d="M66 0h195v700H66z"/><glyph unicode="S" horiz-adv-x="652" d="M337-12c170 0 283 85 283 228v2c0 131-100 183-261 218-97 22-121 36-121 68v2c0 25 23 45 70 45 62 0 132-24 196-69l97 137c-76 61-169 93-288 93-168 0-271-94-271-224v-2c0-144 115-186 264-220 95-22 118-38 118-67v-2c0-30-28-48-80-48-81 0-158 29-227 84L9 104C95 27 213-12 337-12z"/><glyph unicode="T" horiz-adv-x="660" d="M233 0h194v530h210v170H23V530h210z"/></font><path fill="#fff" d="M0 0h67.9v50H0z"/><text transform="translate(18.84 30.877)" fill="#26C7D5" font-family="'DINNextLTPro-Bold'" font-size="18.014" letter-spacing="4">OH</text><path fill="#393D43" d="M67.9 0h94.682v50H67.9z"/><text transform="matrix(1 -.013 .013 1 85.435 31.111)" fill="#fff" font-family="'GothamHTF-Black'" font-size="18.014" letter-spacing="4">SHIT</text></svg>

<?xml version="1.0" encoding="utf-8"?>
<!-- Generator: Adobe Illustrator 16.0.0, SVG Export Plug-In . SVG Version: 6.00 Build 0)  -->
<!DOCTYPE svg PUBLIC "-//W3C//DTD SVG 1.1//EN" "http://www.w3.org/Graphics/SVG/1.1/DTD/svg11.dtd">
<svg version="1.1" id="Layer_1" xmlns="http://www.w3.org/2000/svg" xmlns:xlink="http://www.w3.org/1999/xlink" x="0px" y="0px"
	 width="162.582px" height="50px" viewBox="0 0 162.582 50" enable-background="new 0 0 162.582 50" xml:space="preserve">
<font horiz-adv-x="1000">
<!-- Copyright &#xA9; 2008 - 2009 Linotype GmbH, www.linotype.com. All rights reserved. This font software may not be reproduced, modified, disclosed or transferred without the express written approval of Linotype GmbH. -->
<!-- Copyright: Copyright 2014 Adobe System Incorporated. All rights reserved. -->
<font-face font-family="DINNextLTPro-Bold" units-per-em="1000" underline-position="-100" underline-thickness="50"/>
<missing-glyph horiz-adv-x="506" d="M0,10C0,4 4,0 10,0l486,0C502,0 506,4 506,10l0,660C506,676 502,680 496,680l-486,0C4,680 0,676 0,670M69,71l0,538C69,613 71,615 75,615l356,0C435,615 437,613 437,609l0,-538C437,67 435,65 431,65l-356,0C71,65 69,67 69,71M209,243l68,0C283,243 287,247 287,253l0,13C287,283 292,293 300,304l45,60C367,389 377,414 377,446C377,511 326,563 250,563C173,563 126,521 114,458C113,452 116,447 122,447l65,-10C193,436 197,439 198,446C204,469 218,485 246,485C271,485 287,467 287,443C287,425 280,412 264,391l-46,-60C206,315 199,302 199,277l0,-24C199,247 203,243 209,243M198,124C198,118 202,114 208,114l71,0C285,114 289,118 289,124l0,67C289,197 285,201 279,201l-71,0C202,201 198,197 198,191z"/>
<glyph unicode="H" horiz-adv-x="658" d="M65,10C65,4 69,0 75,0l127,0C208,0 212,4 212,10l0,262C212,276 214,278 218,278l222,0C444,278 446,276 446,272l0,-262C446,4 450,0 456,0l127,0C589,0 593,4 593,10l0,660C593,676 589,680 583,680l-127,0C450,680 446,676 446,670l0,-255C446,411 444,409 440,409l-222,0C214,409 212,411 212,415l0,255C212,676 208,680 202,680l-127,0C69,680 65,676 65,670z"/>
<glyph unicode="O" horiz-adv-x="628" d="M314,-11C433,-11 527,44 562,154C577,201 581,239 581,340C581,441 577,479 562,526C527,636 433,691 314,691C195,691 101,636 66,526C51,479 47,441 47,340C47,239 51,201 66,154C101,44 195,-11 314,-11M314,119C258,119 222,147 207,194C199,218 196,251 196,340C196,429 199,462 207,486C222,533 258,561 314,561C370,561 406,533 421,486C429,462 432,429 432,340C432,251 429,218 421,194C406,147 370,119 314,119z"/>
</font>

	<font horiz-adv-x="1000">
<!-- HTF Gotham&#xAA; &#xA9; 2003 The Hoefler Type Foundry, Inc. Info: www.typography.com -->
<!-- Copyright: Copyright 2014 Adobe System Incorporated. All rights reserved. -->
<font-face font-family="GothamHTF-Black" units-per-em="1000" underline-position="-133" underline-thickness="20"/>
<missing-glyph horiz-adv-x="500"/>
<glyph unicode="H" horiz-adv-x="761" d="M62,0l194,0l0,266l249,0l0,-266l194,0l0,700l-194,0l0,-262l-249,0l0,262l-194,0z"/>
<glyph unicode="I" horiz-adv-x="327" d="M66,0l195,0l0,700l-195,0z"/>
<glyph unicode="S" horiz-adv-x="652" d="M337,-12C507,-12 620,73 620,216l0,2C620,349 520,401 359,436C262,458 238,472 238,504l0,2C238,531 261,551 308,551C370,551 440,527 504,482l97,137C525,680 432,712 313,712C145,712 42,618 42,488l0,-2C42,342 157,300 306,266C401,244 424,228 424,199l0,-2C424,167 396,149 344,149C263,149 186,178 117,233l-108,-129C95,27 213,-12 337,-12z"/>
<glyph unicode="T" horiz-adv-x="660" d="M233,0l194,0l0,530l210,0l0,170l-614,0l0,-170l210,0z"/>
</font>

	<g>
	<rect fill="#FFFFFF" width="67.9" height="50"/>
	
		<text transform="matrix(1 0 0 1 18.8398 30.8774)" fill="#26C7D5" font-family="'DINNextLTPro-Bold'" font-size="18.0135" letter-spacing="4">OH</text>
	<rect x="67.9" fill="#393D43" width="94.682" height="50"/>
	
		<text transform="matrix(0.9999 -0.0134 0.0134 0.9999 85.4346 31.1108)" fill="#FFFFFF" font-family="'GothamHTF-Black'" font-size="18.0135" letter-spacing="4">SHIT</text>
</g>
</svg>
